actualanswers/design/images/icon/invoice.svg

<svg width="32" height="32" viewBox="0 0 32 32" fill="none" xmlns="http://www.w3.org/2000/svg">
<path d="M12.4414 15.521H20.4414V17.521H12.4414V15.521ZM14.4414 23.521H10.4414V7.521H17.4414V12.521H22.4414V15.621L24.4414 13.621V11.521L18.4414 5.521H10.4414C9.91097 5.521 9.40227 5.73171 9.02719 6.10678C8.65212 6.48186 8.44141 6.99056 8.44141 7.521V23.521C8.44141 24.0514 8.65212 24.5601 9.02719 24.9352C9.40227 25.3103 9.91097 25.521 10.4414 25.521H14.4414V23.521ZM12.4414 21.521H16.5414L17.4414 20.621V19.521H12.4414V21.521ZM24.6414 16.521C24.7414 16.521 24.9414 16.621 25.0414 16.721L26.3414 18.021C26.5414 18.221 26.5414 18.621 26.3414 18.821L25.3414 19.821L23.2414 17.721L24.2414 16.721C24.3414 16.621 24.4414 16.521 24.6414 16.521ZM24.6414 20.421L18.5414 26.521H16.4414V24.421L22.5414 18.321L24.6414 20.421Z" fill="black"/>
</svg>

<svg width="32" height="32" fill="none" xmlns="http://www.w3.org/2000/svg"><path d="M12.441 15.521h8v2h-8v-2zm2 8h-4v-16h7v5h5v3.1l2-2v-2.1l-6-6h-8a2 2 0 00-2 2v16a2 2 0 002 2h4v-2zm-2-2h4.1l.9-.9v-1.1h-5v2zm12.2-5c.1 0 .3.1.4.2l1.3 1.3c.2.2.2.6 0 .8l-1 1-2.1-2.1 1-1c.1-.1.2-.2.4-.2zm0 3.9l-6.1 6.1h-2.1v-2.1l6.1-6.1 2.1 2.1z" fill="#000"/></svg>
